X: 21402
Q: "With spirit."
M: 6/8
L: 1/8
K: A
E |\
e2f =g2e | d2B ^G2B | e>fe dcB | A3- A2 :|
|: e |\
a2e c2A | d2B G2E | a2e c2d | e2a c2d |\
e2f =g2e | d2B ^G2B | e>fe dcB | A3- A2 :|


